icons/op-baseline-24.svg

<svg width="24" height="24" viewBox="0 0 24 24" fill="none" xmlns="http://www.w3.org/2000/svg">
<path d="M6.08696 5V9.2H4.69565V5H6.08696ZM4.69565 19V14.8H6.08696V19H4.69565ZM6.78261 12C6.78261 12.777 6.16348 13.4 5.39131 13.4C5.11613 13.4 4.84714 13.3179 4.61834 13.1641C4.38954 13.0102 4.21121 12.7916 4.10591 12.5358C4.0006 12.2799 3.97305 11.9984 4.02673 11.7269C4.08042 11.4553 4.21293 11.2058 4.4075 11.0101C4.60208 10.8143 4.84999 10.6809 5.11987 10.6269C5.38976 10.5729 5.66951 10.6006 5.92373 10.7066C6.17796 10.8125 6.39525 10.992 6.54813 11.2222C6.70101 11.4524 6.78261 11.7231 6.78261 12ZM14.4348 6.4C17.5096 6.4 20 8.906 20 12C20 15.094 17.5096 17.6 14.4348 17.6C11.9304 17.6 9.81565 15.934 9.11304 13.645L7.47826 12L9.11304 10.355C9.81565 8.066 11.9304 6.4 14.4348 6.4ZM14.4348 7.8C12.1322 7.8 10.2609 9.683 10.2609 12C10.2609 14.317 12.1322 16.2 14.4348 16.2C16.7374 16.2 18.6087 14.317 18.6087 12C18.6087 9.683 16.7374 7.8 14.4348 7.8ZM13.7391 12.7V9.2H14.7826V12.14L16.8696 13.4L16.2991 14.282L13.7391 12.7Z" fill="black"/>
</svg>

<svg xmlns="http://www.w3.org/2000/svg" width="24" height="24" viewBox="0 0 24 24"><path d="M6.087 5v4.2H4.696V5h1.391ZM4.696 19v-4.2h1.391V19H4.696Zm2.087-7a1.392 1.392 0 1 1-2.756-.273 1.39 1.39 0 0 1 1.897-1.02A1.406 1.406 0 0 1 6.783 12Zm7.652-5.6C17.51 6.4 20 8.906 20 12s-2.49 5.6-5.565 5.6c-2.505 0-4.619-1.666-5.322-3.955L7.478 12l1.635-1.645C9.816 8.066 11.93 6.4 14.435 6.4Zm0 1.4c-2.303 0-4.174 1.883-4.174 4.2s1.871 4.2 4.174 4.2c2.302 0 4.174-1.883 4.174-4.2s-1.872-4.2-4.174-4.2Zm-.696 4.9V9.2h1.044v2.94l2.087 1.26-.571.882-2.56-1.582Z"/></svg>
